X:1
T:Title
%%score { 1 | 2 }
L:1/8
M:2/4
K:G
V:1 treble nm="Grand Piano"
V:2 treble 
V:1
 z2 z[Q:1/4=82] G | BB GB | dd BB | [Fc][FA] FD |[M:9/16] [DG]A/-A/B-B/G |[M:2/4] BB GB | dd BB | %7
 [Fc][FA] FD |[M:7/16] BAG3/2 |[M:1/8] B |[M:2/4] dB GD | dB GD | [Fc][FA] FD |[M:7/16] B[FA]G3/2 | %14
[M:1/8] B |[M:2/4] dB GD | dB GD | [Fc][FA] FD |[M:7/16] B[FA]G3/2 |] %19
V:2
 z2 z [G,B,D] | [G,D][G,D] [G,B,D][G,D] | [G,B,G][G,B,G] [G,DG][G,DG] | [D,D][D,C] [D,A,D][D,F,] | %4
[M:9/16] [B,,G,][D,F,D]/-[D,F,D]/[K:treble][G,D]-[G,D]/[G,B,D] |[M:2/4] [G,D][G,D] [G,B,D][G,D] | %6
 [G,B,G][G,B,G] [G,DG][G,DG] | [D,D][D,C] [D,A,D][D,F,] | %8
[M:7/16] [D,G,D][D,CD][K:treble][G,B,D]3/2 |[M:1/8] [G,D] | %10
[M:2/4] [G,B,G][G,D] [G,B,D][K:bass][G,B,] | [G,B,D][G,D] [G,B,D][G,B,] | %12
 [D,D][D,C] [D,A,D][D,F,] |[M:7/16] [D,G,D][D,C][G,B,]3/2 |[M:1/8][K:treble] [G,D] | %15
[M:2/4] [G,B,G][G,D] [G,B,D][G,B,] | [G,B,D][G,D] [G,B,D][G,B,] | [D,D][D,C] [D,A,D][D,F,] | %18
[M:7/16] [D,G,D][D,C][G,B,]3/2 |] %19

